!!!!SEGMENT: pl-kk--kk-i-385--003_anonim--tractus.krn
!!!cenid: 17xx:1983
!!!COM: Anonim
!!!COM-rismid: pe30004985
!!!CDT:
!!!CNT:
!!!OTL: Tractus
!!!PDT:
!!!AGN: Sacred
!!!SMS-siglum: PL-Kk
!!!SMS-shelfmark: Kk.I.385
!!!SMS-shelfwork: 003 W
!!!SMS-variant:
!!!SMS-altvar:
!!!NIFC-rismid: 1001143562
!!!URL-scan: http://repozytorium.nifc.pl/skany/pl-kk-nut--i-385
!!!ONB-nifc: UWAGA: numeracja zgodna z numeracją utworów w źródle
!!!AIN: 1 alto 1 soprn 1 tenor
!!!key:
**kern	**text	**kern	**text	**kern	**text
*part3	*part3	*part2	*part2	*part1	*part1
*staff3	*staff3	*staff2	*staff2	*staff1	*staff1
*Itenor	*	*Ialto	*	*Isoprn	*
*I"Tenore.	*	*I"Alto.	*	*I"Soprano.	*
*I'T.	*	*I'A.	*	*I'S.	*
*clefC4	*	*clefC3	*	*clefC1	*
*k[b-]	*	*k[b-]	*	*k[b-]	*
*F:	*	*F:	*	*F:	*
*M4/4	*	*M4/4	*	*M4/4	*
*met(c|)	*	*met(c|)	*	*met(c|)	*
=1	=1	=1	=1	=1	=1
*all\right	*	*all\right	*	*all\right	*
*2\right	*	*2\right	*	*2\right	*
!	!	!LO:TX:a:t=8.	!	!LO:TX:a:t=10.	!
!LO:TX:a:t=3.timo	!	!LO:TX:a:t=3.timo	!	!LO:TX:a:t=3.	!
!LO:TX:a:t=Tractus.	!	!LO:TX:a:t=Tractus	!	!LO:TX:a:t=Tractus.	!
1F	Gau-	00r	.	00r	.
=2	=2	=2	=2	=2	=2
2C/	-de	.	.	.	.
2c\	Ma-	.	.	.	.
=3	=3	=3	=3	=3	=3
2B-X\	-ri-	.	.	.	.
2A\	-a	.	.	.	.
=4	=4	=4	=4	=4	=4
4G/	vir-	.	.	.	.
4C/	.	.	.	.	.
4c\	.	.	.	.	.
4B-\	-go	.	.	.	.
=5	=5	=5	=5	=5	=5
2.A\	gau-	00r	.	00r	.
4B-\	.	.	.	.	.
=6	=6	=6	=6	=6	=6
4c\	-de	.	.	.	.
4d\	.	.	.	.	.
2B-\	Ma-	.	.	.	.
=7	=7	=7	=7	=7	=7
2A\	.	.	.	.	.
4G/	-ri-	.	.	.	.
4A/	-a	.	.	.	.
!LO:LB:g=original	!	!	!	!	!
=8	=8	=8	=8	=8	=8
4B-\	vir-	.	.	.	.
4G\	.	.	.	.	.
4A\	.	.	.	.	.
4F/	-go	.	.	.	.
=9	=9	=9	=9	=9	=9
4A\	vir-	1c	Gau-	0r	.
4B-X\	.	.	.	.	.
[2c\	.	.	.	.	.
=10	=10	=10	=10	=10	=10
2c\]	.	2F/	-de	.	.
2Bn\	.	2f\	Ma-	.	.
=11	=11	=11	=11	=11	=11
2c\	-go	2e\	-ri-	1g	Gau-
2d\	Ma-	2d\	-a	.	.
=12	=12	=12	=12	=12	=12
[y1c	-ri-	1e	vir-	2c/	-de
.	.	.	.	2cc\	Ma-
=13	=13	=13	=13	=13	=13
!LO:N:xstem:cue:vis=4	!	!	!	!	!
2c\]	.	2d\	.	2b-X\	-ri-
2F/	.	2c\	.	2a\	-a
=14	=14	=14	=14	=14	=14
2C/	-a	1c	-go	1g	Vir-
2c\	Ma-	.	.	.	.
=15	=15	=15	=15	=15	=15
!	!	!LO:TX:a:t=1.	!	!	!
2B-\	-ri-	1r	.	2f/	.
[2A\	-a	.	.	2e/	-go
!LO:LB:g=original	!	!	!	!	!
=16	=16	=16	=16	=16	=16
!LO:TX:a:t=P:problem=brak zakończenia ligatury	!	!	!	!	!
2A\]	vir-	2r	.	1d	vir-
2G/	.	[2d\	cun-	.	.
!	!	!LO:LB:g=original	!	!	!
=17	=17	=17	=17	=17	=17
!	!	!LO:TX:a:t=P:problem=brak zakończenia ligatury	!	!	!
2F/	.	2d\]	.	1a	-go,
2E/	.	2c#X\	-ctas	.	.
=18	=18	=18	=18	=18	=18
!	!	!	!	!LO:TX:a:t=1.	!
2D/	-go	4d\	he-	1r	.
.	.	4c\	.	.	.
2r	.	4B-/	.	.	.
.	.	4G/	.	.	.
!	!	!	!	!LO:LB:g=original	!
=19	=19	=19	=19	=19	=19
!LO:TX:a:t=2	!	!	!	!	!
0r	.	2B-/	.	2r	.
.	.	2A/	-re-	[2dd\	cun-
=20	=20	=20	=20	=20	=20
.	.	2G/	-ses	2dd\]	.
.	.	[2g\	cun-	2cc\	-ctas
=21	=21	=21	=21	=21	=21
2r	.	2g\]	.	2.dd\	he-
[2d\	cun-	4f\	.	.	.
.	.	4g\	-ctas	4ee\	.
=22	=22	=22	=22	=22	=22
2d\]	.	2.a\	he-	2ff\	.
2c#X\	-ctas	.	.	2ee\	.
.	.	4a\	-re-	.	.
=23	=23	=23	=23	=23	=23
2.d\	he-	1f	-ses,	2.dd\	.
4e\	-re-	.	.	4dd\	-re-
=24	=24	=24	=24	=24	=24
!	!	!LO:TX:a:t=1.	!	!	!
2f\	-ses	1r	.	1a	-ses,
2e\	so-	.	.	.	.
!LO:LB:g=original	!	!LO:LB:g=original	!	!	!
=25	=25	=25	=25	=25	=25
!	!	!	!	!LO:TX:a:t=3	!
2d\	-la	2r	.	0r	.
[2d\	in-	[2f\	so-	.	.
=26	=26	=26	=26	=26	=26
2d\]	.	2f\]	.	.	.
2c#X\	.	2e\	-la	.	.
=27	=27	=27	=27	=27	=27
2.d\	-te-	[y1d	in-	1r	.
4cn\	-re	.	.	.	.
=28	=28	=28	=28	=28	=28
!	!	!LO:N:xstem:cue:vis=4	!	!	!
2B-X\	mi-	2d\]	.	2r	.
2A\	.	2f\	.	[2dd\	so-
=29	=29	=29	=29	=29	=29
2G/	-sti	2g\	-te-	2dd\]	.
2G/	in-	2g\	-re	2cc\	-la
!	!	!	!	!LO:LB:g=original	!
=30	=30	=30	=30	=30	=30
2d\	-te-	1f	mi-	4dd\	in-
.	.	.	.	4ee\	.
2d\	-re	.	.	[y2ff\	-ter-
=31	=31	=31	=31	=31	=31
!	!	!	!	!LO:N:xstem:cue	!
2A\	mi-	1f	-sti	4ff\]	.
.	.	.	.	4ee-X\	.
[2B-\	.	.	.	2dd\	-re
=32	=32	=32	=32	=32	=32
2B-\]	.	2r	.	1cc	mis-
2A\	.	[2f\	que	.	.
!LO:LB:g=original	!	!	!	!	!
=33	=33	=33	=33	=33	=33
2B-\	-sti	2f\]	Ga-	2dd\	-ti
2B-\	que	2d\	-bri-	2dd\	que
!	!	!LO:LB:g=original	!	!	!
=34	=34	=34	=34	=34	=34
4G/	Ga-	2.e\	-e-	2b-\	ga-
4G/	-bri-	.	.	.	.
[2A\	-e-	.	.	[2cc\	.
.	.	4e\	-lis	.	.
=35	=35	=35	=35	=35	=35
2A\]	.	2c\	ar-	2cc\]	.
2F/	.	[2d\	.	2b-\	-bri-
=36	=36	=36	=36	=36	=36
2F/	-lis	2d\]	.	2a\	-e-
2E/	ar-	2c\	.	4g\	-lis,
.	.	.	.	4g\	ar-
=37	=37	=37	=37	=37	=37
2.D/	-han-	2c\	-han-	2.f/	-han-
.	.	2Bn/	-ge-	.	.
4D/	-ge-	.	.	4f/	-ge-
!	!	!	!	!LO:LB:g=original	!
=38	=38	=38	=38	=38	=38
2C/	-li	1c	-li	1e	-li
2c\	que	.	.	.	.
=39	=39	=39	=39	=39	=39
!	!	!	!	!LO:TX:a:t=2	!
4F/	Ga-	0r	.	0r	.
4F/	-bri-	.	.	.	.
[2B-\	-e-	.	.	.	.
=40	=40	=40	=40	=40	=40
2B-\]	.	.	.	.	.
2A\	.	.	.	.	.
!LO:LB:g=original	!	!	!	!	!
=41	=41	=41	=41	=41	=41
2.G/	-lis	1c	que	1cc	que
4A/	ar-	.	.	.	.
=42	=42	=42	=42	=42	=42
4B-\	-han-	2d\	Ga-	4f/	Ga-
4A\	.	.	.	4f/	-bri-
4G\	.	4B-\	-bri-	[2b-\	-e-
4A\	.	4c\	.	.	.
=43	=43	=43	=43	=43	=43
4B-\	.	4d\	-e-	2b-\]	.
4c\	.	4e\	.	.	.
!	!	!LO:LB:g=original	!	!	!
2d\	.	[2f\	-lis	2a\	-lis
=44	=44	=44	=44	=44	=44
[y1G	.	2f\]	.	2bn\	ar-
.	.	2e-X\	ar-	[2cc\	-han-
=45	=45	=45	=45	=45	=45
!LO:N:xstem:cue:vis=4	!	!	!	!LO:TX:t=P:poprawki:problem	!
2G/]	.	2.d\	-han-	2cc\]	.
2G/	-ge-	.	.	2bn\	-ge-
.	.	4d\	-ge-	.	.
=46	=46	=46	=46	=46	=46
2G/	-li	1en	-li	1cc	-li
[>2G/	dic-	.	.	.	.
=47	=47	=47	=47	=47	=47
2G/]	.	[y1e	dic-	1r	.
2E/	-tis	.	.	.	.
=48	=48	=48	=48	=48	=48
!	!	!LO:N:xstem:cue:vis=4	!	!	!
2.A\	cre-	2e\]	.	2r	.
.	.	2c\	-tis	2cc\	dic-
4G/	.	.	.	.	.
!LO:LB:g=original	!	!	!	!LO:LB:g=original	!
=49	=49	=49	=49	=49	=49
4F/	.	2.f\	cre-	2a\	-tis
4E/	.	.	.	.	.
2D/	-di-	.	.	[2dd\	cre-
.	.	4e\	-di-	.	.
=50	=50	=50	=50	=50	=50
1F	-di-	4d\	-di-	2dd\]	.
.	.	4e\	.	.	.
.	.	[2f\	.	2cc\	-di-
=51	=51	=51	=51	=51	=51
1G	-sti	2f\]	.	1b-	-di-
.	.	2e\	.	.	.
!	!	!LO:LB:g=original	!	!	!
=52	=52	=52	=52	=52	=52
2C/	Dum	1f	-sti	1a	-sti
[y2c\	Vir-	.	.	.	.
=53	=53	=53	=53	=53	=53
!LO:N:xstem:cue	!	!	!	!	!
4c\]	.	2r	.	1r	.
4B-\	.	.	.	.	.
4A\	.	2f\	dum	.	.
4G\	.	.	.	.	.
=54	=54	=54	=54	=54	=54
2F/	-go	4f\	vir-	2r	.
.	.	4e\	.	.	.
2F/	De-	2d\	-go	4dd\	De-
.	.	.	.	4cc\	.
=55	=55	=55	=55	=55	=55
2G/	-um	2d\	De-	2b-\	-um
2A\	et	4d\	-um	2a\	et
.	.	4d\	et	.	.
=56	=56	=56	=56	=56	=56
2.B-\	ho-	2.d\	ho-	2.g\	ho-
4B-\	-mi-	4d\	-mi-	4g\	-mi-
!LO:LB:g=original	!	!	!	!	!
=57	=57	=57	=57	=57	=57
2A\	-nem	1d	-nem	2f/	-nem
[2B-\	.	.	.	[>2f/	ge-
!	!	!	!	!LO:LB:g=original	!
=58	=58	=58	=58	=58	=58
!	!	!	!	!LO:TX:a:t=P:problem=brak zakończenia ligatury	!
2B-\]	.	2r	.	2f/]	.
2G/	ge-	[2c\	ge-	2g\	-nu-
=59	=59	=59	=59	=59	=59
1F	-nu-	2c\]	.	2a\	-i-
.	.	2d\	-nu-	[2b-\	.
!	!	!LO:LB:g=original	!	!	!
=60	=60	=60	=60	=60	=60
1F	-is-	1c	-is-	2b-\]	.
.	.	.	.	2a\	.
=61	=61	=61	=61	=61	=61
2F/	-ti	2d\	-ti	2b-\	-sti
4B-\	et	2g\	et	2b-\	et
4c\	.	.	.	.	.
=62	=62	=62	=62	=62	=62
1d	.	1an	post	1a	post
=63	=63	=63	=63	=63	=63
2G/	post	2g\	par-	2b-\	par-
[2c\	par-	2e-X\	-tum	2g\	-tum
=64	=64	=64	=64	=64	=64
2c\]	.	2e-X\	vir-	2f/	vir-
2B-\	-tum	2d\	-go	2b-\	.
=65	=65	=65	=65	=65	=65
4A\	vir-	2c\	in-	2cc\	-go
2B-\	.	.	.	.	.
.	.	2c\	-vi-	2a\	in-
4A\	.	.	.	.	.
!LO:LB:g=original	!	!	!	!LO:LB:g=original	!
=66	=66	=66	=66	=66	=66
1B-	-go	2d\	.	2a\	-vi-
.	.	2d\	-o-	2f/	-o-
=67	=67	=67	=67	=67	=67
0r	.	2d\	-la-	2b-\	-la-
.	.	2f\	-ta	2dd\	-ta
!	!	!LO:LB:g=original	!	!	!
=68	=68	=68	=68	=68	=68
.	.	2f\	per-	2a\	per-
.	.	2f\	-man-	2f/	-man-
=69	=69	=69	=69	=69	=69
1r	.	1g	-si-	1cc	-si-
=70	=70	=70	=70	=70	=70
2r	.	2g\	-sti	1b-	-sti
2G/	De-	2g\	De-	.	.
=71	=71	=71	=71	=71	=71
2A\	.	2f\	.	1r	.
2B-\	-i	2d\	-i	.	.
=72	=72	=72	=72	=72	=72
4c\	ge-	1e	Ge-	2r	.
4B-\	.	.	.	.	.
4A\	.	.	.	2cc\	De-
4G\	-ni-	.	.	.	.
=73	=73	=73	=73	=73	=73
2F/	-trix	2f\	.	2b-\	.
[2c\	in-	4e\	.	2g\	.
.	.	4d\	-ni-	.	.
=74	=74	=74	=74	=74	=74
2c\]	.	2c\	-tris	1a	-i
2A\	-ter-	2c\	in-	.	.
!	!	!	!	!LO:LB:g=original	!
=75	=75	=75	=75	=75	=75
1A	-ce-	2d\	.	2ff\	ge-
.	.	2e\	-ter-	2ee\	.
!LO:LB:g=original	!	!LO:LB:g=original	!	!	!
=76	=76	=76	=76	=76	=76
2A\	-de	1f	-ce-	[y1dd	.
2A\	pro	.	.	.	.
=77	=77	=77	=77	=77	=77
!	!	!	!	!LO:N:xstem:cue:vis=4	!
1G	no-	2f\	-de	2dd\]	.
.	.	2e-X\	pro	2cc\	.
=78	=78	=78	=78	=78	=78
1G	.	2d\	no-	2bn\	.
.	.	[2c\	.	2ee-X\	.
=79	=79	=79	=79	=79	=79
1G	.	2c\]	.	2.dd\	.
.	.	2Bn/	.	.	.
.	.	.	.	4dd\	-ni-
=80	=80	=80	=80	=80	=80
2G/	-bis	2c\	-bis	1cc	-trix
2G/	in-	2e\	in-	.	.
=81	=81	=81	=81	=81	=81
2G/	.	1e	-ter-	2r	.
[y2A\	-ter-	.	.	2cc\	in-
=82	=82	=82	=82	=82	=82
!LO:N:xstem:cue	!	!	!	!	!
4A\]	.	2.f\	-ce-	4a\	-ter-
4G/	.	.	.	8b-\L	.
.	.	.	.	8cc\J	.
[y2F/	.	.	.	2dd\	-ce-
.	.	4e\	.	.	.
!	!	!	!	!LO:LB:g=original	!
=83	=83	=83	=83	=83	=83
!LO:N:xstem:cue	!	!	!	!	!
4F/]	.	4d\	.	4dd\	.
8G/L	.	8e\L	.	4cc\	.
8A/J	.	8f\J	.	.	.
2B-\	-ce-	[2g\	-de	2b-\	.
!	!	!LO:LB:g=original	!	!	!
=84	=84	=84	=84	=84	=84
2A\	-de	2g\]	.	2.cc\	-de
2A\	pro	2f\	pro	.	.
.	.	.	.	4cc\	pro
!LO:LB:g=original	!	!	!	!	!
=85	=85	=85	=85	=85	=85
2G/	no-	2e\	no-	4cc\	no-
.	.	.	.	4b-\	.
4A\	.	[2f\	.	4a\	.
4B-\	.	.	.	8g\L	.
.	.	.	.	8f\J	.
=86	=86	=86	=86	=86	=86
1c	.	2f\]	.	1g	.
.	.	2e\	.	.	.
=87	=87	=87	=87	=87	=87
0c;	-bis.	0f;	-bis.	0a;	-bis.
==	==	==	==	==	==
*-	*-	*-	*-	*-	*-
!!!system-decoration: [(s1,s2,s3,s4)]
!!!RDF**kern: > = above
!!!ENC: Marta Lawrence
!!!END: 2021-02-14
!!!ENC: Mateusz Solarz
!!!END: 2021-02-09
